image/google play logo.svg

<svg width="31" height="35" viewBox="0 0 31 35" fill="none" xmlns="http://www.w3.org/2000/svg">
<path d="M15.3716 17.4422L0.954764 33.0687L0.515938 33.5491C0.243119 33.1459 0.0592641 32.6655 0.0177792 32.1318C0.00592641 32.037 0 31.942 0 31.8472V3.03127C0 2.38495 0.195708 1.80375 0.515938 1.32916L15.3716 17.4422Z" fill="#3A9BC8"/>
<path d="M21.8535 10.4087L15.3716 17.4422L0.51593 1.32913C1.35802 0.0956872 3.07784 -0.432035 4.53676 0.410059L21.8535 10.4087Z" fill="#9BCD83"/>
<path d="M30.9983 17.5251C30.9746 18.5097 30.4705 19.4941 29.492 20.0574L21.8536 24.4696L15.3716 17.4422L21.8536 10.4087L26.6572 13.1842L29.492 14.8209C30.5298 15.42 31.0339 16.4755 30.9983 17.5251Z" fill="#EEB84C"/>
<path d="M0.51709 33.5484C1.35959 34.7824 3.07832 35.3084 4.53451 34.4677L21.8511 24.4699L15.3691 17.4394L0.51709 33.5484Z" fill="#B43F70"/>
<path opacity="0.2" d="M30.9309 16.7879C30.7638 16.0033 30.2849 15.2786 29.4919 14.8209L26.6572 13.1842L21.8535 10.4087L4.53677 0.41009C3.07785 -0.432005 1.35803 0.0957177 0.515938 1.32916C0.195708 1.80375 0 2.38495 0 3.03126V19.6334C2.4987 19.8455 5.05625 19.9567 7.66012 19.9567C10.9288 19.9567 14.1213 19.7766 17.2185 19.4454L15.3775 17.4486L17.2193 19.4454C22.0699 18.927 26.6734 18.0211 30.9309 16.7879Z" fill="white"/>
</svg>

<svg xmlns="http://www.w3.org/2000/svg" width="31" height="35" fill="none"><path fill="#3A9BC8" d="M15.372 17.442.955 33.07l-.44.48a2.924 2.924 0 0 1-.497-1.417A2.293 2.293 0 0 1 0 31.847V3.031c0-.646.196-1.227.516-1.702l14.856 16.113Z"/><path fill="#9BCD83" d="m21.854 10.409-6.482 7.033L.516 1.33C1.358.096 3.078-.432 4.536.41l17.317 9.999Z"/><path fill="#EEB84C" d="M30.998 17.525a2.985 2.985 0 0 1-1.506 2.532l-7.638 4.413-6.482-7.028 6.482-7.033 4.803 2.775 2.835 1.637a2.975 2.975 0 0 1 1.506 2.704Z"/><path fill="#B43F70" d="M.517 33.548c.843 1.234 2.561 1.76 4.018.92L21.85 24.47l-6.482-7.03L.517 33.547Z"/><path fill="#fff" d="M30.93 16.788a2.964 2.964 0 0 0-1.438-1.967l-2.835-1.637-4.803-2.775L4.537.41C3.077-.432 1.358.096.516 1.33A3.024 3.024 0 0 0 0 3.03v16.602a89.908 89.908 0 0 0 17.218-.188l-1.84-1.996 1.841 1.996c4.85-.518 9.454-1.424 13.712-2.657Z" opacity=".2"/></svg>
